fa/key.svg

<svg xmlns="http://www.w3.org/2000/svg" viewBox="0 0 512 512" height="1em" width="1em">
  <path d="m282.3 343.7-34.2 32.4c-3.6 5.4-9.7 7.9-16.1 7.9h-40v40c0 13.3-10.7 24-24 24h-40v40c0 13.3-10.7 24-24 24H24c-13.25 0-24-10.7-24-24v-80c0-6.4 2.529-12.5 7.029-17L168.3 229.7c-5.4-16.9-8.3-35-8.3-53.7C160 78.8 238.8 0 336 0s176 78.8 176 176-78.8 176-176 176c-18.7 0-36.8-2.9-53.7-8.3zM376 176c22.1 0 40-17.9 40-40s-17.9-40-40-40-40 17.9-40 40 17.9 40 40 40z"/>
</svg>

<svg xmlns="http://www.w3.org/2000/svg" viewBox="0 0 512 512" height="1em" width="1em">
  <path d="M282.3 343.7L248.1 376.1C244.5 381.5 238.4 384 232 384H192V424C192 437.3 181.3 448 168 448H128V488C128 501.3 117.3 512 104 512H24C10.75 512 0 501.3 0 488V408C0 401.6 2.529 395.5 7.029 391L168.3 229.7C162.9 212.8 160 194.7 160 176C160 78.8 238.8 0 336 0C433.2 0 512 78.8 512 176C512 273.2 433.2 352 336 352C317.3 352 299.2 349.1 282.3 343.7zM376 176C398.1 176 416 158.1 416 136C416 113.9 398.1 96 376 96C353.9 96 336 113.9 336 136C336 158.1 353.9 176 376 176z"/>
</svg>
